icons/reverb.svg

<svg id="Layer_2" data-name="Layer 2" xmlns="http://www.w3.org/2000/svg" viewBox="0 0 140 140"><path d="M70.18,74.1a4.77,4.77,0,0,1-4.77-4.63c-1.07-4.75-21.12-23-42.25-23a4.78,4.78,0,0,1,0-9.55C47.52,36.94,75,58.07,75,69.33A4.77,4.77,0,0,1,70.18,74.1Zm-4.76-4.58h0Zm0-.19Z" fill="#fff"/><path d="M17.4,87.82A4.71,4.71,0,0,1,14,86.42a4.77,4.77,0,0,1,0-6.74C31.25,62.45,65.59,58,73.56,66A4.78,4.78,0,0,1,66.9,72.8c-4.11-2.6-31.18-1.31-46.12,13.62A4.72,4.72,0,0,1,17.4,87.82ZM67,72.83Zm-.14-.13h0Z" fill="#fff"/><path d="M42.56,121.12a4.78,4.78,0,0,1-4.77-4.77c0-24.36,21.13-51.79,32.39-51.79a4.77,4.77,0,0,1,.14,9.54c-4.75,1.07-23,21.12-23,42.25A4.78,4.78,0,0,1,42.56,121.12Zm27.62-47Z" fill="#fff"/><path d="M83.9,126.88a4.76,4.76,0,0,1-3.37-1.4C63.3,108.26,58.84,73.92,66.81,66a4.77,4.77,0,0,1,6.84,6.65c-2.6,4.12-1.31,31.19,13.63,46.13a4.78,4.78,0,0,1-3.38,8.15ZM73.56,72.7Zm.12-.14" fill="#fff"/><path d="M117.2,101.72c-24.36,0-51.79-21.13-51.79-32.39A4.77,4.77,0,0,1,75,69.19c1.07,4.75,21.12,23,42.25,23a4.78,4.78,0,0,1,0,9.55ZM75,69.33Zm0-.19" fill="#fff"/><path d="M81.07,76.52c-6.5,0-11.72-1.28-14.26-3.82a4.77,4.77,0,0,1,6.65-6.84c4.11,2.6,31.18,1.31,46.12-13.63A4.77,4.77,0,0,1,126.33,59C114.6,70.71,94.94,76.52,81.07,76.52ZM73.55,66h0Zm-.14-.12" fill="#fff"/><path d="M70.18,74.1A4.77,4.77,0,0,1,70,64.56c4.75-1.07,23-21.12,23-42.25a4.78,4.78,0,0,1,9.55,0C102.57,46.66,81.44,74.1,70.18,74.1ZM70,64.57Zm.19,0Z" fill="#fff"/><path d="M70.18,74.1a4.78,4.78,0,0,1-3.47-8c2.6-4.11,1.31-31.18-13.63-46.12a4.77,4.77,0,0,1,6.75-6.75C77.06,30.4,81.52,64.74,73.56,72.7A4.75,4.75,0,0,1,70.18,74.1Zm-3.5-8Zm.13-.15h0Z" fill="#fff"/></svg>

<svg xmlns="http://www.w3.org/2000/svg" viewBox="0 0 140 140">
	<path d="M70.2 74.1a4.8 4.8 0 0 1-4.8-4.6c-1-4.8-21.1-23-42.2-23a4.8 4.8 0 0 1 0-9.6C47.5 37 75 58.1 75 69.3a4.8 4.8 0 0 1-4.8 4.8Zm-4.8-4.6Zm0-.2Z" fill="#fff"/>
	<path d="M17.4 87.8a4.7 4.7 0 0 1-3.4-1.4 4.8 4.8 0 0 1 0-6.7C31.3 62.4 65.6 58 73.6 66a4.8 4.8 0 0 1-6.7 6.8c-4.1-2.6-31.2-1.3-46.1 13.6a4.7 4.7 0 0 1-3.4 1.4Zm49.6-15Zm-.1-.1Z" fill="#fff"/>
	<path d="M42.6 121.1a4.8 4.8 0 0 1-4.8-4.7c0-24.4 21.1-51.8 32.4-51.8a4.8 4.8 0 0 1 .1 9.5c-4.7 1-23 21.1-23 42.3a4.8 4.8 0 0 1-4.7 4.7Zm27.6-47Z" fill="#fff"/>
	<path d="M83.9 126.9a4.8 4.8 0 0 1-3.4-1.4C63.3 108.3 58.8 73.9 66.8 66a4.8 4.8 0 0 1 6.9 6.7c-2.6 4-1.4 31.1 13.6 46a4.8 4.8 0 0 1-3.4 8.2ZM73.6 72.7Zm0-.1" fill="#fff"/>
	<path d="M117.2 101.7c-24.4 0-51.8-21.1-51.8-32.4a4.8 4.8 0 0 1 9.6-.1c1 4.7 21.1 23 42.3 23a4.8 4.8 0 0 1 0 9.5ZM75 69.3Zm0-.2" fill="#fff"/>
	<path d="M81 76.5c-6.4 0-11.7-1.3-14.2-3.8a4.8 4.8 0 0 1 6.7-6.8c4 2.6 31.1 1.3 46-13.7a4.8 4.8 0 0 1 6.8 6.8 69.3 69.3 0 0 1-45.2 17.5ZM73.6 66Zm0-.1" fill="#fff"/>
	<path d="M70.2 74.1a4.8 4.8 0 0 1-.2-9.5c4.8-1.1 23-21.2 23-42.3a4.8 4.8 0 0 1 9.6 0c0 24.4-21.2 51.8-32.4 51.8Zm-.2-9.5Zm.2 0Z" fill="#fff"/>
	<path d="M70.2 74.1a4.8 4.8 0 0 1-3.5-8C69.3 62 68 34.9 53.1 20a4.8 4.8 0 0 1 6.7-6.8c17.3 17.2 21.7 51.5 13.8 59.5a4.8 4.8 0 0 1-3.4 1.4Zm-3.5-8Zm.1-.1Z" fill="#fff"/>
</svg>
